X:151
T:Brother Trip Foot THO1.151
M:2/4
L:1/8
Z:vmp. Peter Dunk 2012.from a transcription by Fynn Titford-Mock 2006
B:Thompson's Compleat Collection of 200 Favourite Country Dances Vol.I,1758
Q:1/4=140
K:F
c|AFcF|BcdB|AFcF|defd|ecgc|GABG|Af (e/f/g/e/)|f3:|
|:f|ecge|fgaf|bgaf|defd|ecdB|GABG|AF (3EFG|F3:|

